assets/_img/canlislogo.svg

<?xml version="1.0" encoding="UTF-8" standalone="no"?>
<svg width="119px" height="18px" viewBox="0 0 119 18" version="1.1" xmlns="http://www.w3.org/2000/svg" xmlns:xlink="http://www.w3.org/1999/xlink">
    <!-- Generator: Sketch 40.3 (33839) - http://www.bohemiancoding.com/sketch -->
    <title>CANLIS</title>
    <desc>Created with Sketch.</desc>
    <defs></defs>
    <g id="Symbols" stroke="none" stroke-width="1" fill="none" fill-rule="evenodd">
        <g id="Desktop/Global/TopSection" fill="#272320">
            <g id="Group-2">
                <path d="M14.0360231,16.3961996 L14.2564842,14.9282546 L14.1585015,14.8287329 C13.9298741,15.0111903 13.6481766,15.2226718 13.3134007,15.4631837 C12.9786247,15.7036957 12.6030281,15.9276173 12.1865995,16.1349552 C11.7701709,16.3422931 11.3129228,16.520601 10.8148416,16.6698843 C10.3167603,16.8191676 9.77377821,16.8938081 9.18587902,16.8938081 C8.22237759,16.8938081 7.32829425,16.7362336 6.50360234,16.4210801 C5.67891041,16.1059264 4.96037773,15.620763 4.34798273,14.9655752 C3.73558774,14.3103874 3.25792681,13.4810483 2.91498561,12.4775328 C2.57204441,11.4740174 2.40057638,10.2839156 2.40057638,8.90719191 C2.40057638,7.53046818 2.57204441,6.34036649 2.91498561,5.33685102 C3.25792681,4.33333556 3.73558774,3.50399637 4.34798273,2.84880859 C4.96037773,2.1936208 5.67891041,1.70845738 6.50360234,1.39330376 C7.32829425,1.07815015 8.22237759,0.920575701 9.18587902,0.920575701 C9.77377821,0.920575701 10.3126777,0.99936292 10.8025937,1.15693973 C11.2925097,1.31451654 11.7334275,1.50941125 12.1253603,1.7416297 C12.5172931,1.97384816 12.8602292,2.21435652 13.1541788,2.46316201 C13.4481283,2.7119675 13.6767524,2.93588908 13.8400577,3.13493347 L13.9870318,3.08517262 C14.0360234,2.8197801 14.1013445,2.48804442 14.1829972,2.08995564 C14.2646498,1.69186686 14.3707967,1.37671797 14.501441,1.14449952 C13.8155586,0.829345902 13.0276222,0.559810671 12.1376081,0.335885729 C11.2475941,0.11196079 10.2636942,0 9.18587902,0 C7.83044472,0 6.58934285,0.199041404 5.46253606,0.597130184 C4.33572926,0.995218964 3.36815968,1.57575639 2.55979829,2.33875989 C1.75143689,3.10176338 1.12272079,4.03476996 0.673631128,5.13780763 C0.224541464,6.24084529 0,7.49729419 0,8.90719191 C0,10.3170896 0.224541464,11.5735386 0.673631128,12.6765762 C1.12272079,13.7796138 1.74327175,14.7126204 2.53530261,15.4756239 C3.32733347,16.2386274 4.27040762,16.8067248 5.36455335,17.179933 C6.45869907,17.5531412 7.65081015,17.7397426 8.94092224,17.7397426 C9.54515201,17.7397426 10.1248772,17.6899822 10.6801153,17.59046 C11.2353535,17.4909378 11.7375098,17.378977 12.1865995,17.2545743 C12.6356892,17.1301715 13.0194509,16.9891839 13.3378963,16.8316071 C13.6563417,16.6740302 13.8890484,16.5288959 14.0360231,16.3961996 L14.0360231,16.3961996 L14.0360231,16.3961996 Z M27.1167147,9.67848507 C27.5413086,9.67848507 27.9822264,9.6867785 28.4394813,9.70336549 C28.8967362,9.71995249 29.337654,9.72824592 29.7622479,9.72824592 C30.2195028,9.72824592 30.6767509,9.7240992 31.1340058,9.7158057 C31.5912607,9.70751221 32.0485088,9.69507207 32.5057637,9.67848507 L29.7867436,3.35885729 L27.1167147,9.67848507 L27.1167147,9.67848507 Z M37.9682998,17.416297 C37.7396723,17.383123 37.523296,17.3665362 37.3191643,17.3665362 L36.6700289,17.3665362 L36.0208934,17.3665362 C35.8167618,17.3665362 35.6003855,17.383123 35.371758,17.416297 C35.2574443,17.0347953 35.1023065,16.574512 34.9063401,16.0354335 C34.7103737,15.4963549 34.4939974,14.9324043 34.2572047,14.3435646 C34.020412,13.754725 33.7795402,13.1576007 33.5345822,12.5521741 C33.2896242,11.9467474 33.0610002,11.3703567 32.8487032,10.8229846 C32.3261262,10.8063975 31.7953918,10.7939574 31.2564842,10.785664 C30.7175766,10.7773705 30.1786771,10.7732237 29.6397695,10.7732237 C29.133523,10.7732237 28.6354492,10.7773705 28.1455332,10.785664 C27.6556172,10.7939574 27.1575434,10.8063975 26.6512968,10.8229846 C26.1287198,12.1167731 25.6551414,13.3483418 25.2305476,14.5177276 C24.8059537,15.6871134 24.4875131,16.6532935 24.2752161,17.416297 C23.9975971,17.383123 23.6954867,17.3665362 23.3688761,17.3665362 C23.0422654,17.3665362 22.7401551,17.383123 22.462536,17.416297 C23.7853092,14.5135664 25.075402,11.627466 26.332853,8.75790937 C27.5903041,5.88835275 28.8559014,2.96907882 30.129683,0 L30.5951009,0 C30.9870337,0.962047885 31.4116212,2.00286856 31.8688761,3.12249325 C32.3261311,4.24211794 32.7915443,5.37416593 33.2651297,6.51867118 C33.7387152,7.66317638 34.2122936,8.7993711 34.685879,9.92728931 C35.1594645,11.0552075 35.6044648,12.1043216 36.0208934,13.074663 C36.4373221,14.0450044 36.8129187,14.9116638 37.1476946,15.6746673 C37.4824705,16.4376708 37.7560029,17.0182083 37.9682998,17.416297 L37.9682998,17.416297 L37.9682998,17.416297 Z M62.4149857,17.7397426 L62.7579252,17.7397426 L62.7579252,16.9186886 C62.7579252,16.5205998 62.7538426,16.0520231 62.7456773,15.5129446 C62.7375121,14.973866 62.7293469,14.3933286 62.7211816,13.7713149 C62.7130164,13.1493011 62.7048512,12.5314434 62.696686,11.9177233 C62.6885207,11.3040031 62.6844381,10.7151722 62.6844381,10.1512131 L62.6844381,8.65838767 C62.6844381,8.17736376 62.7007684,7.53877256 62.7334295,6.742595 C62.7660906,5.94641744 62.8028337,5.13366504 62.84366,4.30431341 C62.8844863,3.47496179 62.9253121,2.69538295 62.9661384,1.96555352 C63.0069647,1.23572409 63.0437079,0.688360231 63.076369,0.323445516 C62.7497583,0.406380679 62.4884737,0.447847638 62.2925073,0.447847638 C62.0638798,0.447847638 61.7862649,0.406380679 61.4596543,0.323445516 C61.541307,1.78310438 61.5943803,3.33811534 61.6188762,4.98852508 C61.643372,6.63893481 61.6556197,8.33493341 61.6556197,10.0765719 L61.6556197,13.4603096 C60.9044152,12.6973061 60.0266622,11.7725929 59.0223344,10.6861423 C58.0180065,9.59969161 56.9565378,8.44691018 55.8378963,7.22776327 C54.7192548,6.00861638 53.5924649,4.77290099 52.4574928,3.52058004 C51.3225207,2.26825909 50.2569695,1.09474414 49.2608069,0 L48.8688761,0 C48.9015372,0.563959105 48.92195,1.41817846 48.9301153,2.56268371 C48.9382805,3.70718895 48.9423631,5.0755986 48.9423631,6.66795372 C48.9423631,7.21532583 48.934198,7.83733018 48.9178674,8.53398555 C48.9015369,9.23064091 48.8811241,9.94387261 48.8566282,10.673702 C48.8321324,11.4035315 48.7994719,12.13335 48.7586455,12.8631794 C48.7178192,13.5930088 48.6810761,14.2689202 48.648415,14.890934 C48.6157539,15.5129477 48.5790108,16.0478714 48.5381844,16.4957213 C48.4973581,16.9435712 48.460615,17.2504267 48.4279539,17.416297 C48.705573,17.383123 49.0076833,17.3665362 49.334294,17.3665362 C49.6445741,17.3665362 49.9303541,17.383123 50.1916427,17.416297 C50.1753122,17.2836008 50.1589819,17.0306523 50.1426513,16.6574441 C50.1263208,16.2842359 50.1099905,15.8488328 50.09366,15.3512218 C50.0773295,14.8536108 50.0609992,14.3145404 50.0446686,13.7339942 C50.0283381,13.1534481 50.0160903,12.5812041 50.0079251,12.017245 C49.9997598,11.4532859 49.9915947,10.9142153 49.9834294,10.4000174 C49.9752642,9.8858194 49.9711816,9.45456303 49.9711816,9.10623531 C49.9711816,7.76268564 49.9793467,6.70113152 49.9956772,5.92154099 C50.0120078,5.14195047 50.0283381,4.51994608 50.0446686,4.05550917 C52.1676379,6.34451965 54.2905754,8.64593587 56.4135447,10.9598269 C58.536514,13.273718 60.5369744,15.5336673 62.4149857,17.7397426 L62.4149857,17.7397426 L62.4149857,17.7397426 Z M75.5201727,6.76747542 L75.5201727,11.0469084 C75.5201727,12.1416526 75.4997601,13.2197935 75.4589335,14.2813636 C75.4181076,15.3429337 75.3731993,16.387901 75.3242072,17.416297 C76.1080731,17.383123 76.863349,17.3665362 77.5900574,17.3665362 L79.8559076,17.3665362 L82.1095099,17.3665362 C82.8607146,17.3665362 83.6119081,17.383123 84.3631122,17.416297 C84.2814597,17.1509045 84.2406338,16.926983 84.2406338,16.7445256 C84.2406338,16.5454812 84.2814597,16.2966794 84.3631122,15.9981129 C83.1383227,16.1639832 81.9952025,16.2593572 80.9337174,16.2842377 C79.8722329,16.3091183 78.7617731,16.3215584 77.6023052,16.3215584 C77.585975,15.110705 77.5696448,13.7381486 77.5533139,12.2038481 C77.5369837,10.6695477 77.5288182,8.85744151 77.5288182,6.76747542 C77.5288182,5.67273128 77.5492315,4.59873704 77.5900574,3.54546047 C77.630884,2.49218391 77.6757923,1.41818966 77.7247836,0.323445516 C77.5124873,0.356619581 77.3083585,0.385646449 77.1123917,0.410527002 C76.9164256,0.435407554 76.7204622,0.447847638 76.5244954,0.447847638 C76.3285293,0.447847638 76.132566,0.435407554 75.9365992,0.410527002 C75.7406331,0.385646449 75.5365043,0.356619581 75.3242072,0.323445516 C75.3731993,1.41818966 75.4181076,2.49218391 75.4589335,3.54546047 C75.4997601,4.59873704 75.5201727,5.67273128 75.5201727,6.76747542 L75.5201727,6.76747542 L75.5201727,6.76747542 Z M95.6066281,6.76747542 L95.6066281,11.0469084 C95.6066281,12.1416526 95.5862155,13.2197935 95.5453889,14.2813636 C95.504563,15.3429337 95.4596547,16.387901 95.4106627,17.416297 C95.7862654,17.383123 96.1863575,17.3665362 96.6109509,17.3665362 C97.035545,17.3665362 97.435637,17.383123 97.8112391,17.416297 C97.7622477,16.387901 97.7173394,15.3429337 97.6765128,14.2813636 C97.6356869,13.2197935 97.6152736,12.1416526 97.6152736,11.0469084 L97.6152736,6.76747542 C97.6152736,5.67273128 97.6356869,4.59873704 97.6765128,3.54546047 C97.7173394,2.49218391 97.7622477,1.41818966 97.8112391,0.323445516 C97.598942,0.356619581 97.394814,0.385646449 97.1988471,0.410527002 C97.002881,0.435407554 96.8069177,0.447847638 96.6109509,0.447847638 C96.4149848,0.447847638 96.2190214,0.435407554 96.0230546,0.410527002 C95.8270885,0.385646449 95.6229597,0.356619581 95.4106627,0.323445516 C95.4596547,1.41818966 95.504563,2.49218391 95.5453889,3.54546047 C95.5862155,4.59873704 95.6066281,5.67273128 95.6066281,6.76747542 L95.6066281,6.76747542 L95.6066281,6.76747542 Z M109.716138,14.1818419 L109.42219,14.1818419 C109.373199,14.6628658 109.320125,15.0568019 109.262968,15.363662 C109.205811,15.6705221 109.103747,16.0146979 108.956772,16.3961996 C109.381366,16.7445274 109.908018,17.0555295 110.536743,17.3292156 C111.165469,17.6029016 111.986066,17.7397426 112.998559,17.7397426 C113.94573,17.7397426 114.790822,17.6029016 115.533862,17.3292156 C116.276901,17.0555295 116.905617,16.6657401 117.420029,16.1598356 C117.934441,15.6539311 118.326367,15.0609536 118.595821,14.3808853 C118.865275,13.7008169 119,12.9792918 119,12.2162884 C119,11.3040016 118.808119,10.5741831 118.424352,10.026811 C118.040584,9.4794389 117.562923,9.03159574 116.991354,8.68326809 C116.419786,8.33494045 115.803318,8.04052498 115.141931,7.80001303 C114.480544,7.55950108 113.864076,7.28581911 113.292507,6.97895903 C112.720938,6.67209893 112.243278,6.2947496 111.85951,5.84689972 C111.475743,5.39904984 111.283862,4.78533885 111.283862,4.00574832 C111.283862,3.55789844 111.36143,3.14322885 111.516571,2.7617271 C111.671711,2.38022535 111.89217,2.05263638 112.177954,1.77895034 C112.463738,1.50526431 112.798509,1.29378281 113.182277,1.14449952 C113.566044,0.995216227 113.986549,0.920575701 114.443804,0.920575701 C114.901059,0.920575701 115.292986,0.99936292 115.619597,1.15693973 C115.946207,1.31451654 116.227905,1.50941125 116.464697,1.7416297 C116.70149,1.97384816 116.889289,2.22679661 117.028098,2.50048265 C117.166907,2.77416868 117.277137,3.02711713 117.35879,3.25933559 L117.652738,3.25933559 C117.750721,2.77831165 117.848702,2.38022884 117.946686,2.06507522 C118.044669,1.7499216 118.167146,1.4513595 118.314121,1.16937994 C117.824205,0.771291164 117.293471,0.476875757 116.721902,0.28612488 C116.150333,0.0953740062 115.472627,0 114.688761,0 C113.872234,0 113.137371,0.116107486 112.48415,0.348325941 C111.830928,0.580544396 111.271616,0.903986678 110.806196,1.31866249 C110.340776,1.7333383 109.985592,2.22679512 109.740634,2.79904774 C109.495676,3.37130036 109.373199,4.00574484 109.373199,4.7024002 C109.373199,5.68103512 109.56508,6.46061395 109.948847,7.04116009 C110.332615,7.62170626 110.810275,8.09857627 111.381844,8.47178449 C111.953413,8.8449927 112.569881,9.15599488 113.231268,9.4048004 C113.892655,9.65360592 114.509123,9.92728782 115.080692,10.2258544 C115.65226,10.524421 116.129921,10.8976237 116.513689,11.3454735 C116.897456,11.7933233 117.089337,12.398741 117.089337,13.1617445 C117.089337,13.6593555 117.007686,14.1279321 116.84438,14.5674885 C116.681075,15.0070448 116.448369,15.3885408 116.146254,15.711988 C115.844139,16.0354351 115.476707,16.2925302 115.043948,16.4832811 C114.611189,16.674032 114.125363,16.769406 113.586455,16.769406 C113.063879,16.769406 112.5903,16.6906188 112.165706,16.533042 C111.741112,16.3754651 111.369598,16.172277 111.051153,15.9234716 C110.732707,15.6746661 110.463258,15.3968374 110.242795,15.0899774 C110.022333,14.7831173 109.846783,14.4804085 109.716138,14.1818419 L109.716138,14.1818419 L109.716138,14.1818419 Z" id="CANLIS"></path>
            </g>
        </g>
    </g>
</svg>

<svg width="119" height="18" xmlns="http://www.w3.org/2000/svg"><path d="M14.036 16.396l.22-1.468-.097-.1c-.23.183-.51.395-.846.635-.334.24-.71.465-1.126.672a8.637 8.637 0 0 1-1.372.535 5.653 5.653 0 0 1-1.63.224 7.452 7.452 0 0 1-2.681-.473 5.704 5.704 0 0 1-2.156-1.455c-.612-.656-1.09-1.485-1.433-2.488-.343-1.004-.514-2.194-.514-3.57 0-1.378.171-2.568.514-3.571.343-1.004.82-1.833 1.433-2.488a5.704 5.704 0 0 1 2.156-1.456A7.452 7.452 0 0 1 9.186.921c.588 0 1.127.078 1.617.236.49.158.93.352 1.322.585.392.232.735.472 1.03.721.293.249.522.473.685.672l.147-.05c.049-.265.114-.597.196-.995s.188-.713.318-.946a13.649 13.649 0 0 0-2.363-.808C11.248.112 10.264 0 9.186 0 7.83 0 6.589.199 5.463.597 4.336.995 3.368 1.576 2.56 2.34 1.75 3.102 1.123 4.035.674 5.138.224 6.24 0 7.498 0 8.908c0 1.41.225 2.666.674 3.769.449 1.103 1.07 2.036 1.861 2.799a7.515 7.515 0 0 0 2.83 1.704c1.094.373 2.286.56 3.576.56.604 0 1.184-.05 1.74-.15a16.73 16.73 0 0 0 1.506-.335c.449-.125.832-.266 1.15-.423.32-.158.552-.303.699-.436zm13.08-6.718c.425 0 .866.009 1.323.025.458.017.899.025 1.323.025a75.641 75.641 0 0 0 2.744-.05l-2.72-6.32-2.67 6.32zm10.852 7.738a4.53 4.53 0 0 0-.649-.05H36.02c-.203 0-.42.017-.648.05-.115-.381-.27-.841-.466-1.38a53.913 53.913 0 0 0-.649-1.692 909.61 909.61 0 0 0-.722-1.792c-.245-.605-.474-1.182-.686-1.729a97.472 97.472 0 0 0-6.198 0 111.512 111.512 0 0 0-1.42 3.695 41.218 41.218 0 0 0-.956 2.898 7.665 7.665 0 0 0-.906-.05c-.327 0-.629.017-.906.05a650.406 650.406 0 0 0 3.87-8.658A1234.43 1234.43 0 0 0 30.13 0h.465l1.274 3.122a796.437 796.437 0 0 0 2.817 6.805 436.516 436.516 0 0 0 2.462 5.748c.334.763.608 1.343.82 1.741zm24.447.324h.343v-.821c0-.398-.004-.867-.012-1.406a866.024 866.024 0 0 1-.05-3.595c-.007-.614-.012-1.203-.012-1.767V8.658c0-.48.017-1.12.05-1.915a298.196 298.196 0 0 1 .232-4.777c.041-.73.078-1.278.11-1.643a3.368 3.368 0 0 1-.783.125 3.48 3.48 0 0 1-.833-.125c.081 1.46.134 3.015.159 4.666.024 1.65.037 3.346.037 5.088v3.383a123.958 123.958 0 0 1-2.634-2.774 1271.22 1271.22 0 0 1-3.184-3.458 815.72 815.72 0 0 1-3.38-3.707C51.322 2.268 50.256 1.095 49.26 0h-.392c.033.564.053 1.418.061 2.563.008 1.144.012 2.513.012 4.105 0 .547-.008 1.17-.024 1.866-.016.697-.037 1.41-.061 2.14-.025.73-.058 1.46-.098 2.19-.041.729-.078 1.405-.11 2.027-.033.622-.07 1.157-.11 1.605-.042.448-.078.754-.111.92.278-.033.58-.05.906-.05.31 0 .596.017.858.05a11.746 11.746 0 0 1-.05-.759 121.53 121.53 0 0 1-.048-1.306c-.017-.497-.033-1.036-.05-1.617-.016-.58-.028-1.153-.036-1.717-.008-.564-.016-1.103-.025-1.617a83.833 83.833 0 0 1-.012-1.294 138.178 138.178 0 0 1 .073-5.05c2.124 2.289 4.247 4.59 6.37 6.904a244.011 244.011 0 0 1 6.001 6.78zM75.52 6.767v4.28c0 1.095-.02 2.173-.061 3.234a342.46 342.46 0 0 1-.135 3.135c.784-.033 1.54-.05 2.266-.05h4.52c.75 0 1.502.017 2.253.05a2.36 2.36 0 0 1-.122-.671c0-.2.04-.448.122-.747a31.08 31.08 0 0 1-3.43.286c-1.06.025-2.171.038-3.33.038-.017-1.211-.033-2.584-.05-4.118a520.011 520.011 0 0 1-.024-5.437c0-1.094.02-2.168.061-3.222.04-1.053.086-2.127.135-3.222-.213.034-.417.063-.613.088a4.663 4.663 0 0 1-1.175 0c-.196-.025-.4-.054-.613-.088.05 1.095.094 2.17.135 3.222a83.2 83.2 0 0 1 .061 3.222zm20.087 0v4.28c0 1.095-.02 2.173-.062 3.234-.04 1.062-.085 2.107-.134 3.135.375-.033.775-.05 1.2-.05.425 0 .825.017 1.2.05a342.51 342.51 0 0 1-.134-3.135 84.171 84.171 0 0 1-.062-3.234v-4.28c0-1.094.02-2.168.062-3.222.04-1.053.085-2.127.134-3.222-.212.034-.416.063-.612.088a4.663 4.663 0 0 1-1.176 0c-.196-.025-.4-.054-.612-.088.049 1.095.094 2.17.134 3.222a83.2 83.2 0 0 1 .062 3.222zm14.11 7.415h-.295c-.049.48-.102.875-.159 1.182-.057.307-.16.65-.306 1.032.424.349.951.66 1.58.933.628.274 1.45.41 2.462.41.947 0 1.792-.136 2.535-.41a5.222 5.222 0 0 0 1.886-1.17 5.102 5.102 0 0 0 1.176-1.778c.27-.68.404-1.402.404-2.165 0-.912-.192-1.642-.576-2.19a4.751 4.751 0 0 0-1.433-1.343 10.32 10.32 0 0 0-1.85-.883 14.07 14.07 0 0 1-1.848-.821 4.936 4.936 0 0 1-1.433-1.132c-.384-.448-.576-1.062-.576-1.841 0-.448.077-.863.233-1.244.155-.382.375-.71.661-.983.286-.274.62-.485 1.004-.635.384-.149.805-.223 1.262-.223.457 0 .849.078 1.176.236.326.158.608.352.845.585.236.232.424.485.563.758.139.274.25.527.33.76h.295c.098-.482.196-.88.294-1.195.098-.315.22-.614.367-.896a5.043 5.043 0 0 0-1.592-.883c-.572-.19-1.25-.286-2.033-.286-.817 0-1.552.116-2.205.348a5.014 5.014 0 0 0-1.678.97c-.465.415-.82.909-1.065 1.481a4.788 4.788 0 0 0-.368 1.903c0 .979.192 1.759.576 2.34.384.58.861 1.057 1.433 1.43a9.467 9.467 0 0 0 1.85.933c.66.249 1.277.522 1.849.82.571.3 1.049.673 1.433 1.12.383.448.575 1.054.575 1.817 0 .497-.081.966-.245 1.405a3.38 3.38 0 0 1-.698 1.145 3.32 3.32 0 0 1-1.102.771c-.433.191-.919.286-1.458.286a4.058 4.058 0 0 1-3.343-1.679 5.002 5.002 0 0 1-.527-.908z" fill="#000000" fill-rule="evenodd"/></svg>
